X:1
T:Tantum ergo - Casciolini
T:James Gibb editions
T:#
%%score [ 1 2 3 ] { ( 4 5 ) | 6 }
L:1/8
Q:1/4=90
M:4/4
K:Eb
V:1 treble nm="Soprano" snm="S"
V:2 treble nm="Alto" snm="A"
V:3 treble-8 nm="Tenor" snm="T"
V:4 treble nm="Midi_43"
V:5 treble 
V:6 bass 
V:1
"^Andante" (E4 A2) G2 | B2"^Tantum Ergo" B2 c2 e2 | d4 B4 | c2 e2 (c4 | e6 d2) | %5
w: Tan\- * tum|er- go sa- cra-|men- tum,|sa- cra- men\-||
 e4"^Claudio Casciolini\n(1697-1760)" z4 |[M:4/4] z2 c4 B2 | (c2 d2) c2 (c2 | d2) e2 f2 e2- | %9
w: tum|Ve- ne-|re\- * mur, Ve\-|* ne- re- mur|
 e2 (d2 c2) c2 | d4 z4 | z2 f2 (B2 c2) | d2 e2 c2 e2- | e2 e2 d4 | c2 (e4 d2) | e2 d4 c2 | %16
w: * cer\- * nu-|i:|Et an\- *|ti- qu- um do\-|* cu- men-|tum, No\- *|vo ce- dat|
 (d2 c2 d3) d | e4 z4 | z2 (B2 d2) e2 | f6 e2 | d4 e4 | (B2 d2 e4) | d4 c2 d2 | B4 (e4- | %24
w: ri\- * * tu-|i:|Prae\- * stet|fi- des|sup- ple-|men\- * *|tum Sen- su-|um de\-|
 e2 d2) e2 e2 | c2 (f4 e2) | (d2 e4) d2 | !fermata!e8 || %28
w: * * fec- tu-|i, de\- *|fec\- * tu-|i.|
[M:3/4]"^più mosso"[Q:1/4=100] (B2 =A2) F2 | (G3 =A B2 | c6) | B2 B2 =A2 | (B3 c de | f2 c2 d2 | %34
w: Ge\- * ni-|to\- * *||ri, Ge- ni-|to\- * * *||
 e2 dc B2- | B2 =A4) | B4 z2 |[Q:1/4=100][Q:1/4=100][Q:1/4=100][Q:1/4=100] z6 | z2 (f4 | %39
w: ||ri,||Ge\-|
 d2 f2) f2 | =e2 c4 | z2 f4 | c2 c2 d2 | f4 =e2 | f2 (c2 d2 | c4 d2) | _e4 z2 | (B4 c2 | %48
w: * * ni-|to- que|Laus|et ju- bi-|la- ti-|o, Sa\- *||lus,|ho\- *|
 F2 B2 c2) | d4 z2 | z2 e2 e2 | (f2 d2) B2 | (f2 e2) e2 | (f2 d2) B2 | (f2 d2) d2 | B4 z2 | z6 | %57
w: |nor,|vir- tus|quo\- * que|Sit * et|be\- * ne-|dic\- * ti-|o:||
 d2 d2 d2 | e4 e2 | d2 d2 d2- | d2 c2 c2 | =B6 | z2 c2 c2 | (c2 f2 d2) | c2 d2 e2 | c2 c2 d2 | f6 | %67
w: et be- ne-|dic- ti-|o, be- ne\-|* dic- ti-|o:|Pro- ce-|den\- * *|ti ab u-|tro- que u-|tro-|
 f4 z2 | d6 | e6 | e6 | f6 | d6 | =e6 | z2 f4 | (!courtesy!_e4 d2 | c4 B2 | c2) c4 | !fermata!d6 || %79
w: que|Com-|par|sit,|Com-|par|sit|lau-|da\- *||* ti-|o.|
 e6 | !fermata!d6 |] %81
w: A-|men.|
V:2
 z8 | z8 | (B,4 E2) D2 | E2 E2 F2 (A2- | A2 G2) F4 | E4 F4- |[M:4/4] F2 E2 (F2 G2) | F2 B4 =A2 | %8
w: ||Tan\- * tum|er- go sa- cra\-|* * men-|tum, Ve\-|* ne- re\- *|mur, Ve- ne-|
 (B2 c2) B2 (G2 | F2 G2 E2) F2 | B,4 z2 E2 | (C2 D2) E2 C2 | B,2 A,4 A2- | A2 (E2 F2 G2) | %14
w: re\- * mur cer\-|* * * nu-|i: Et|an\- * ti- qu-|um do- cu\-|* men\- * *|
 A4 A2 B2 | (E2 B4) A2 | G2 (EC) G4 | z2 (C2 E2) F2 | (G8 | F2 D2) C4 | (G4 E4- | E2) D2 C4 | %22
w: tum, No- vo|ce\- * dat|ri- tu\- * i:|Prae\- * stet|fi\-|* * des|sup\- *|* ple- men-|
 B,4 z4 | D2 E2 C4 | (B,4 E4) | (A,4 C4 | B,6) B,2 | !fermata!E8 ||[M:3/4] z6 | z6 | (F2 E2) C2 | %31
w: tum|Sen- su- um|de\- *|fec\- *|* tu-|i.|||Ge\- * ni-|
 (D3 E F2 | G6) | F2 F2 D2 | (CD EF D2) | C2 (F4 | D2 E2) E2 | (E2 D2 G2) | F6 | z6 | z2 C4 | %41
w: to\- * *||ri, Ge- ni-|to\- * * * *|ri, Ge\-|* * ni-|to\- * *|que||Laus|
 D2 D2 D2 | (F4 B2- | B2 =A2) G2 | F4 z2 | z2 (F2 D2 | C4 D2) | E4 (E2- | E2 D2 C2) | B,2 B2 B2 | %50
w: et ju- bi-|la\- *|* * ti-|o,|Sa\- *||lus, ho\-||nor, vir- tus|
 (B2 G2) E2 | (B2 B,2) B2 | B2 G2 E2 | (B2 B,2) B2 | B4 z2 | E2 E2 E2 | (E6 | G4) G2 | C2 C2 C2 | %59
w: quo\- * que|Sit * et|be\- * ne-|dic\- * ti-|o:|et be- ne-|dic\-|* ti-|o: be- ne-|
 (B,6 | C6) | G,6 | C4 z2 | z2 F2 F2 | (F2 B2 G2) | F2 =A2 B2 | =A2 F2 B2 | F2 F4 | z6 | E6 | _A6 | %71
w: dic\-||ti-|o:|Pro- ce-|den\- * *|ti ab u-|tro- que u-|tro- que||Com-|par|
 F6 | G6 | C6 | B,4 B,2 | (C4 D2 | E2 F2 G2 | E2 F2) F2 | !fermata!B,6 || E6 | !fermata!B,6 |] %81
w: sit,|Com-|par|sit lau-|da\- *||* * ti-|o.|A-|men.|
V:3
 z8 | (E4 A2) G2 | B2 B2 G2 B2 | (G4 A4) | B4 z2 A2- | A2 G2 (A2 c2) | %6
w: |Tan\- * tum|er- go sa- cra-|men\- *|tum Ve\-|* ne- re\- *|
[M:4/4][K:treble-8] G4 A2 G2 | (=A2 B2) F4 | z2 (c2 d2) B2 | =A2 B4 A2 | B2 B2 (F2 G2) | %11
w: mur Ve- ne-|re\- * mur|cer\- * nu-|i, cer- nu-|i: Et an\- *|
 _A2 B2 G2 =A2 | B2 c2 _A2 c2- | c2 c4 =B2 | c4 c2 _B2 | B4 B2 (c2- | c=B c4) B2 | c4 z4 | %18
w: ti- qu- um, an-|ti- qu- um do-|* cu- men-|tum, No- vo|ce- dat ri\-|* * * tu-|i:|
 z4 z2 (G2 | =A2) B2 (c4- | c2 B2) G4 | (F2 B4) =A2 | B4 F4 | z4 G2 _A2 | F4 (G2 B2- | %25
w: Prae\-|* stet fi\-|* * des|sup\- * ple-|men- tum|Sen- su-|um de\- *|
 B2 A2) (G2 A2- | A2 G2) F4 | !fermata!G8 ||[M:3/4][K:treble-8] z6 | z6 | z6 | z6 | z2 (B4- | %33
w: * * fec\- *|* * tu-|i.|||||Ge\-|
 B2 =A2) F2 | (G3 =A B2 | c6) | F2 G2 G2 | (G=A) B2 (B2 | =A2 c2) c2 | (B2 =A2 d2) | c4 c2- | %41
w: * * ni-|to\- * *||ri, Ge- ni-|to\- * ri, Ge\-|* * ni-|to\- * *|que Laus|
 c2 B2 (B2- | B2 =A2 B2) | c4 B2 | =A2 (A2 B2- | B2 =A2 B2) | c4 z2 | z2 (G4 | B2 F2 G2) | B4 z2 | %50
w: * et ju\-||la- ti-|o Sa\- *||lus,|ho\-||nor,|
 z2 B2 G2 | (d2 B2) d2 | (d2 B2) G2 | d2 (B2 d2- | d2) B2 B2 | G4 z2 | B2 B2 B2 | (B6 | G4) =A2 | %59
w: vir- tus|quo\- * que|Sit * et|be- ne\- *|* dic- ti-|o:|et be- ne-|dic\-|* ti-|
 B2 F2 F2 | (E6 | D4) D2 | =E4 z2 | z6 | z2 B2 B2 | (=A2 c2 B2) | F2 c2 d2 | c2 c4 | B6 | G6 | c6 | %71
w: o, be- ne-|dic\-|* ti-|o:||Pro- ce-|den\- * *|ti ab u-|tro- que|Com-|par|sit,|
 =A6 | =B6 | G6 | d6 | (d2 c2 _B2- | B2 =A2 B2 | G2 =A2) A2 | !fermata!B6 || G6 | !fermata!F6 |] %81
w: Com-|par|sit|lau-|da\- * *||* * ti-|o.|A-|men.|
V:4
 E4 A2 G2 | B2 B2 c2 e2 | d4 B4 | c2 e2 c4 | e6 d2 | e4 z4 |[M:4/4] z2 c4 B2 | c2 d2 c2 c2 | %8
 d2 e2 f2 e2- | e2 d2 c2 c2 | d4 z4 | z2 f2 B2 c2 | d2 e2 c2 e2- | e2 e2 d4 | c2 e4 d2 | e2 d4 c2 | %16
 d2 c2 d3 d | e4 z4 | z2 B2 d2 e2 | f6 e2 | d4 e4 | B2 d2 e4 | d4 c2 d2 | B4 e4- | e2 d2 e2 e2 | %25
 c2 f4 e2 | d2 e4 d2 | !fermata!e8 ||[M:3/4] B2 =A2 F2 | G3 =A B2 | c6 | B2 B2 =A2 | B3 c de | %33
 f2 c2 d2 | e2 dc B2- | B2 =A4 | B4 z2 | E2 D2 G2 | z2 f4 | d2 f2 f2 | =e2 c4 | z2 f4 | c2 c2 d2 | %43
 f4 =e2 | f2 c2 d2 | c4 d2 | _e4 z2 | B4 c2 | F2 B2 c2 | d4 z2 | z2 e2 e2 | f2 d2 B2 | f2 e2 e2 | %53
 f2 d2 B2 | f2 d2 d2 | B4 z2 | E6 | d2 d2 d2 | e4 e2 | d2 d2 d2- | d2 c2 c2 | =B6 | z2 c2 c2 | %63
 c2 f2 d2 | c2 d2 e2 | c2 c2 d2 | f6 | f4 z2 | d6 | e6 | e6 | f6 | d6 | =e6 | z2 f4 | %75
 !courtesy!_e4 d2 | c4 B2 | c2 c4 | !fermata![Fd]6 || [EGe]6 | !fermata![DFd]6 |] %81
V:5
 x4 x4 | x4 x4 | B,4 E2 D2 | E2 E2 F2 A2- | A2 G2 F4 | E4 F4- |[M:4/4] F2 E2 F2 G2 | F2 B4 =A2 | %8
 B2 c2 B2 G2 | F2 G2 E2 F2 | B,4 z2 E2 | C2 D2 E2 C2 | B,2 A,4 A2- | A2 E2 F2 G2 | A4 A2 B2 | %15
 E2 B4 A2 | G2 EC G4 | z2 C2 E2 F2 | G8 | F2 D2 C4 | G4 E4- | E2 D2 C4 | B,4 z4 | D2 E2 C4 | %24
 B,4 E4 | A,4 C4 | B,6 B,2 | E8 ||[M:3/4] x4 x2 | x4 x2 | F2 E2 C2 | D3 E F2 | G6 | F2 F2 D2 | %34
 CD EF D2 | C2 F4 | D2 E2 E2 | x4 x2 | F6 | x4 x2 | z2 C4 | D2 D2 D2 | F4 B2- | B2 =A2 G2 | F4 z2 | %45
 z2 F2 D2 | C4 D2 | E4 E2- | E2 D2 C2 | B,2 B2 B2 | B2 G2 E2 | B2 B,2 B2 | B2 G2 E2 | B2 B,2 B2 | %54
 B4 z2 | E2 E2 E2 | x4 x2 | G4 G2 | C2 C2 C2 | B,6 | C6 | G,6 | C4 z2 | z2 F2 F2 | F2 B2 G2 | %65
 F2 =A2 B2 | =A2 F2 B2 | F2 F4 | x4 x2 | E6 | _A6 | F6 | G6 | C6 | B,4 B,2 | C4 D2 | E2 F2 G2 | %77
 E2 F2 F2 | x4 x2 || x4 x2 | x4 x2 |] %81
V:6
 z8 | E,4 A,2 G,2 | B,2 B,2 G,2 B,2 | G,4 A,4 | B,4 z2 A,2- | A,2 G,2 A,2 C2 |[M:4/4] G,4 A,2 G,2 | %7
 =A,2 B,2 F,4 | z2 C2 D2 B,2 | =A,2 B,4 A,2 | B,2 B,2 F,2 G,2 | !courtesy!_A,2 B,2 G,2 =A,2 | %12
 B,2 C2 !courtesy!_A,2 C2- | C2 C4 =B,2 | C4 C2 !courtesy!_B,2 | B,4 B,2 C2- | C=B, C4 B,2 | %17
 C4 z4 | z4 z2 G,2 | =A,2 B,2 C4- | C2 B,2 G,4 | F,2 B,4 =A,2 | B,4 F,4 | z4 G,2 !courtesy!_A,2 | %24
 F,4 G,2 B,2- | B,2 A,2 G,2 A,2- | A,2 G,2 F,4 | !fermata![E,G,]8 ||[M:3/4] z6 | z6 | z6 | z6 | %32
 z2 B,4- | B,2 =A,2 F,2 | G,3 =A, B,2 | C6 | F,2 G,2 G,2 | G,=A, B,2 B,2 | =A,2 C2 C2 | %39
 B,2 =A,2 D2 | C4 C2- | C2 B,2 B,2- | B,2 =A,2 B,2 | C4 B,2 | =A,2 A,2 B,2- | B,2 =A,2 B,2 | %46
 C4 z2 | z2 G,4 | B,2 F,2 G,2 | B,4 z2 | z2 B,2 G,2 | D2 B,2 D2 | D2 B,2 G,2 | D2 B,2 D2- | %54
 D2 B,2 B,2 | G,4 z2 | B,2 B,2 B,2 | B,6 | G,4 =A,2 | B,2 F,2 F,2 | E,6 | D,4 D,2 | =E,4 z2 | z6 | %64
 z2 B,2 B,2 | =A,2 C2 B,2 | F,2 C2 D2 | C2 C4 | B,6 | G,6 | C6 | =A,6 | =B,6 | G,6 | D6 | %75
 D2 C2 _B,2- | B,2 =A,2 B,2 | G,2 =A,2 A,2 | !fermata![B,,B,]6 || [B,,G,]6 | !fermata![B,,F,]6 |] %81

